X: 7
T:Doublestop Exercise
C:I-IV-V Relationships
N:Transcribed by David Zimmerman
L:1/8
Q:1/4=150
M:4/4
K:C
"G""5 space"[D2B,2] [D2B,2] [D2B,2] [D2B,2] | "C""Upside-down "[E2G,2] [E2G,2] [E2G,2] [E2G,2] | 
"G""5 space"[D2B,2] [D2B,2] [D2B,2] [D2B,2] | "D""2 space"[D2A,2] [D2A,2] [D2A,2] [D2A,2] | 
"G""5 space"[D2B,2] [D2B,2] [D2B,2] [D2B,2] | "C""Upside-down "[E2G,2] [E2G,2] [E2G,2] [E2G,2] | 
"G""5 space"[D2B,2] [D2B,2] "D""2 space"[D2A,2] [D2A,2] | "G""5 space"[D2B,2] [D2B,2] [D2B,2] [D2B,2] | 
"G""1 space"[G2B,2] [G2B,2] [G2B,2] [G2B,2] | "C""4 space"[E2C2] [E2C2] [E2C2] [E2C2] | 
"G""1 space"[G2B,2] [G2B,2] [G2B,2] [G2B,2] | "D""Upside-down "[^F2A,2] [F2A,2] [F2A,2] [F2A,2] | 
"G""1 space"[G2B,2] [G2B,2] [G2B,2] [G2B,2] | "C""4 space"[E2C2] [E2C2] [E2C2] [E2C2] | 
"G""1 space"[G2B,2] [G2B,2] "D""Upside-down "[^F2A,2] [F2A,2] | "G""1 space"[G2B,2] [G2B,2] [G2B,2] [G2B,2] | 
"G""2 space"[G2D2] [G2D2] [G2D2] [G2D2] | "C"[G2C2] [G2C2] [G2C2] [G2C2] | "G""2 space"[G2D2] [G2D2] [G2D2] [G2D2] | 
"D""4 space"[^F2D2] [F2D2] [F2D2] [F2D2] | "G""2 space"[G2D2] [G2D2] [G2D2] [G2D2] | 
"C"[G2C2] [G2C2] [G2C2] [G2C2] | "G""2 space"[G2D2] [G2D2] "D""4 space"[^F2D2] [F2D2] | 
"G""2 space"[G2D2] [G2D2] [G2D2] [G2D2] | "G""Upside-down "[B2D2] [B2D2] [B2D2] [B2D2] | 
"C""5 space"[G2E2] [G2E2] [G2E2] [G2E2] | "G""Upside-down "[B2D2] [B2D2] [B2D2] [B2D2] | 
"D"[A2D2] [A2D2] [A2D2] [A2D2] | "G""Upside-down "[B2D2] [B2D2] [B2D2] [B2D2] | 
"C""5 space"[G2E2] [G2E2] [G2E2] [G2E2] | "G""Upside-down "[B2D2] [B2D2] "D"[A2D2] [A2D2] | 
"G""Upside-down "[B2D2] [B2D2] [B2D2] [B2D2] | "G""Upside-down "[B2D2] "D & A String"[B2D2] [B2D2] [B2D2] | 
"C""1 space"[c2E2] [c2E2] [c2E2] [c2E2] | "G""Upside-down "[B2D2] [B2D2] [B2D2] [B2D2] | 
"D"[A2D2] [A2D2] [A2D2] [A2D2] | "G""Upside-down "[B2D2] [B2D2] [B2D2] [B2D2] | 
"C""1 space"[c2E2] [c2E2] [c2E2] [c2E2] | "G""Upside-down "[B2D2] [B2D2] "D"[A2D2] [A2D2] | 
"G""Upside-down "[B2D2] [B2D2] [B2D2] [B2D2] | "G""4 space"[B2G2] [B2G2] [B2G2] [B2G2] | 
"C""1 space"[c2E2] [c2E2] [c2E2] [c2E2] | "G""4 space"[B2G2] [B2G2] [B2G2] [B2G2] | 
"D""5 space"[A2^F2] [A2F2] [A2F2] [A2F2] | "G""4 space"[B2G2] [B2G2] [B2G2] [B2G2] | 
"C""1 space"[c2E2] [c2E2] [c2E2] [c2E2] | "G""4 space"[B2G2] [B2G2] "D""5 space"[A2^F2] [A2F2] | 
"G""4 space"[B2G2] [B2G2] [B2G2] [B2G2] | "G"[d2G2] [d2G2] [d2G2] [d2G2] | "C""2 space"[c2G2] [c2G2] [c2G2] [c2G2] | 
"G"[d2G2] [d2G2] [d2G2] [d2G2] | "D""1 space"[d2^F2] [d2F2] [d2F2] [d2F2] | "G"[d2G2] [d2G2] [d2G2] [d2G2] | 
"C""2 space"[c2G2] [c2G2] [c2G2] [c2G2] | "G"[d2G2] [d2G2] "D""1 space"[d2^F2] [d2F2] | 
"G"[d2G2] [d2G2] [d2G2] [d2G2] | "G""5 space"[d2B2] [d2B2] [d2B2] [d2B2] | "C""Upside-down "[e2G2] [e2G2] [e2G2] [e2G2] | 
"G""5 space"[d2B2] [d2B2] [d2B2] [d2B2] | "D""2 space"[d2A2] [d2A2] [d2A2] [d2A2] | 
"G""5 space"[d2B2] [d2B2] [d2B2] [d2B2] | "C""Upside-down "[e2G2] [e2G2] [e2G2] [e2G2] | 
"G""5 space"[d2B2] [d2B2] "D""2 space"[d2A2] [d2A2] | "G""5 space"[d2B2] [d2B2] [d2B2] [d2B2] | 
"G""1 space"[g2B2] [g2B2] [g2B2] [g2B2] | "C""4 space"[e2c2] [e2c2] [e2c2] [e2c2] | 
"G""1 space"[g2B2] [g2B2] [g2B2] [g2B2] | "D""Upside-down "[^f2A2] [f2A2] [f2A2] [f2A2] | 
"G""1 space"[g2B2] [g2B2] [g2B2] [g2B2] | "C""4 space"[e2c2] [e2c2] [e2c2] [e2c2] | 
"G""1 space"[g2B2] [g2B2] "D""Upside-down "[^f2A2] [f2A2] | "G""1 space"[g2B2] [g2B2] [g2B2] [g2B2] | 
"G""1 space"[g2B2] "A & E String"[g2B2] [g2B2] [g2B2] | "C""4 space"[e2c2] [e2c2] [e2c2] [e2c2] | 
"G""1 space"[g2B2] [g2B2] [g2B2] [g2B2] | "D""Upside-down "[^f2A2] [f2A2] [f2A2] [f2A2] | 
"G""1 space"[g2B2] [g2B2] [g2B2] [g2B2] | "C""4 space"[e2c2] [e2c2] [e2c2] [e2c2] | 
"G""1 space"[g2B2] [g2B2] "D""Upside-down "[^f2A2] [f2A2] | "G""1 space"[g2B2] [g2B2] [g2B2] [g2B2] | 
"G""2 space"[g2d2] [g2d2] [g2d2] [g2d2] | "C"[g2c2] [g2c2] [g2c2] [g2c2] | "G""2 space"[g2d2] [g2d2] [g2d2] [g2d2] | 
"D""4 space"[^f2d2] [f2d2] [f2d2] [f2d2] | "G""2 space"[g2d2] [g2d2] [g2d2] [g2d2] | 
"C"[g2c2] [g2c2] [g2c2] [g2c2] | "G""2 space"[g2d2] [g2d2] "D""4 space"[^f2d2] [f2d2] | 
"G""2 space"[g2d2] [g2d2] [g2d2] [g2d2] | "G""Upside-down "[b2d2] [b2d2] [b2d2] [b2d2] | 
"C""5 space"[g2e2] [g2e2] [g2e2] [g2e2] | "G""Upside-down "[b2d2] [b2d2] [b2d2] [b2d2] | 
"D"[a2d2] [a2d2] [a2d2] [a2d2] | "G""Upside-down "[b2d2] [b2d2] [b2d2] [b2d2] | 
"C""5 space"[g2e2] [g2e2] [g2e2] [g2e2] | "G""Upside-down "[b2d2] [b2d2] "D"[a2d2] [a2d2] | 
"G""Upside-down "[b2d2] [b2d2] [b2d2] [b2d2] | "G""4 space"[b2g2] [b2g2] [b2g2] [b2g2] | 
"C""1 space"[c'2e2] [c'2e2] [c'2e2] [c'2e2] | "G""4 space"[b2g2] [b2g2] [b2g2] [b2g2] | 
"D""5 space"[a2^f2] [a2f2] [a2f2] [a2f2] | "G""4 space"[b2g2] [b2g2] [b2g2] [b2g2] | 
"C""1 space"[c'2e2] [c'2e2] [c'2e2] [c'2e2] | "G""4 space"[b2g2] [b2g2] "D""5 space"[a2^f2] [a2f2] | 
"G""4 space"[b2g2] [b2g2] [b2g2] [b2g2] | "G"[d'2g2] [d'2g2] [d'2g2] [d'2g2] | 
"C""2 space"[c'2g2] [c'2g2] [c'2g2] [c'2g2] | "G"[d'2g2] [d'2g2] [d'2g2] [d'2g2] | 
"D""1 space"[d'2^f2] [d'2f2] [d'2f2] [d'2f2] | "G"[d'2g2] [d'2g2] [d'2g2] [d'2g2] | 
"C""2 space"[c'2g2] [c'2g2] [c'2g2] [c'2g2] | "G"[d'2g2] [d'2g2] "D""1 space"[d'2^f2] [d'2f2] | 
"G"[d'2g2] [d'2g2] [d'2g2] [d'2g2] | "G""5 space"[d'2b2] [d'2b2] [d'2b2] [d'2b2] | 
"C""Upside-down "[e'2g2] [e'2g2] [e'2g2] [e'2g2] | "G""5 space"[d'2b2] [d'2b2] [d'2b2] [d'2b2] | 
"D""2 space"[d'2a2] [d'2a2] [d'2a2] [d'2a2] | "G""5 space"[d'2b2] [d'2b2] [d'2b2] [d'2b2] | 
"C""Upside-down "[e'2g2] [e'2g2] [e'2g2] [e'2g2] | "G""5 space"[d'2b2] [d'2b2] "D""2 space"[d'2a2] [d'2a2] | 
"G""5 space"[d'2b2] [d'2b2] [d'2b2] [d'2b2] |

